X:1854
T:Bourrée
C:MCTB 1/40
M:3/8
L:1/8
K:C
g|e>de/f/|gag|e>de/f/|d/e/dg|\
e>de/f/|gag|ec/d/e/c/|d2:|
|:e|d/e/ge|d/e/cG|cde|dce|\
d/e/ge|d/e/cc|d/e/dB|c2:|


